img/socialLogo4.svg

<svg width="17" height="12" viewBox="0 0 17 12" fill="none" xmlns="http://www.w3.org/2000/svg">
<path opacity="0.6" d="M16.6239 1.71454L16.6451 1.85289C16.4397 1.12654 15.8851 0.566066 15.1803 0.362066L15.1654 0.358537C13.8402 -5.13477e-05 8.50719 -5.12799e-05 8.50719 -5.12799e-05C8.50719 -5.12799e-05 3.18767 -0.00711016 1.84894 0.358537C1.13069 0.566066 0.575368 1.12654 0.373495 1.83806L0.369954 1.85289C-0.125165 4.43006 -0.128707 7.52677 0.391912 10.2861L0.369954 10.1463C0.575368 10.8726 1.12999 11.4331 1.83477 11.6371L1.84964 11.6406C3.1735 11.9999 8.5079 11.9999 8.5079 11.9999C8.5079 11.9999 13.8267 11.9999 15.1661 11.6406C15.8851 11.4331 16.4404 10.8726 16.6423 10.1611L16.6458 10.1463C16.8711 8.94771 17 7.56841 17 6.15947C17 6.10794 17 6.05571 16.9993 6.00347C17 5.95547 17 5.8983 17 5.84112C17 4.43147 16.8711 3.05218 16.6239 1.71454ZM6.80579 8.57712V3.42912L11.2442 6.007L6.80579 8.57712Z" fill="white"/>
</svg>

<svg width="17" height="12" fill="none" xmlns="http://www.w3.org/2000/svg"><path opacity=".6" d="M16.624 1.715l.021.138A2.151 2.151 0 0015.18.363l-.015-.004c-1.325-.36-6.658-.36-6.658-.36S3.187-.006 1.85.36A2.152 2.152 0 00.374 1.84l-.003.014c-.495 2.577-.499 5.674.022 8.433l-.022-.14a2.15 2.15 0 001.465 1.491l.015.004C3.174 12 8.508 12 8.508 12s5.319 0 6.658-.36a2.152 2.152 0 001.476-1.479l.004-.015A21.99 21.99 0 0017 6.16v-.318c0-1.41-.129-2.789-.376-4.126zM6.806 8.577V3.43l4.438 2.578-4.438 2.57z" fill="#fff"/></svg>
